flaticon/transport/bus-3.svg

<svg xmlns="http://www.w3.org/2000/svg" width="32" height="32" viewBox="0 0 24 24">
    <path d="M16.371094 8.984375L16.371094 5.3125C16.371094 4.792969 15.933594 4.351562 15.414062 4.351562L12.539062 4.351562C12.019531 4.351562 11.582031 4.792969 11.582031 5.3125L11.582031 8.984375C11.582031 9.503906 12.019531 9.945312 12.539062 9.945312L15.414062 9.945312C15.933594 9.945312 16.371094 9.503906 16.371094 8.984375zM12.378906 8.984375L12.378906 5.3125C12.378906 5.230469 12.460938 5.152344 12.539062 5.152344L15.414062 5.152344C15.496094 5.152344 15.574219 5.230469 15.574219 5.3125L15.574219 8.984375C15.574219 9.066406 15.492188 9.144531 15.414062 9.144531L12.539062 9.144531C12.460938 9.144531 12.378906 9.066406 12.378906 8.984375zM9.425781 4.351562L6.550781 4.351562C6.03125 4.351562 5.589844 4.792969 5.589844 5.3125L5.589844 8.984375C5.589844 9.503906 6.03125 9.945312 6.550781 9.945312L9.425781 9.945312C9.945312 9.945312 10.382812 9.503906 10.382812 8.984375L10.382812 5.3125C10.382812 4.792969 9.945312 4.351562 9.425781 4.351562zM9.585938 8.984375C9.585938 9.066406 9.503906 9.144531 9.425781 9.144531L6.550781 9.144531C6.46875 9.144531 6.390625 9.066406 6.390625 8.984375L6.390625 5.3125C6.390625 5.230469 6.46875 5.152344 6.550781 5.152344L9.425781 5.152344C9.503906 5.152344 9.585938 5.230469 9.585938 5.3125zM4.792969 15.933594C4.351562 15.933594 3.992188 16.292969 3.992188 16.730469 3.992188 17.171875 4.351562 17.53125 4.792969 17.53125 5.230469 17.53125 5.589844 17.171875 5.589844 16.730469 5.589844 16.292969 5.230469 15.933594 4.792969 15.933594zM4.792969 15.933594"/>
    <path d="M 24 7.945312 C 24 7.585938 23.878906 7.269531 23.640625 7.027344 L 20.167969 3.195312 C 19.886719 2.914062 19.527344 2.753906 19.167969 2.753906 L 1.199219 2.753906 C 0.558594 2.753906 0 3.273438 0 3.953125 L 0 15.933594 C 0 16.574219 0.519531 17.132812 1.199219 17.132812 L 2.023438 17.132812 C 2.214844 18.496094 3.371094 19.527344 4.792969 19.527344 C 6.214844 19.527344 7.367188 18.496094 7.558594 17.132812 L 14.777344 17.132812 L 14.65625 17.25 L 13.792969 20.351562 L 13.578125 20.566406 C 13.417969 20.726562 13.417969 20.964844 13.578125 21.125 C 13.65625 21.203125 13.738281 21.246094 13.855469 21.246094 C 13.976562 21.246094 14.054688 21.203125 14.136719 21.125 L 14.351562 20.910156 L 17.449219 20.046875 L 23.640625 13.9375 C 23.882812 13.714844 24.003906 13.40625 24 13.097656 Z M 21.832031 6.269531 L 22.960938 7.546875 C 23.082031 7.628906 23.121094 7.785156 23.121094 7.90625 L 23.121094 9.144531 L 18.371094 9.144531 L 18.371094 5.152344 L 20.804688 5.152344 Z M 0.796875 5.152344 L 3.515625 5.152344 C 3.554688 5.152344 3.59375 5.191406 3.59375 5.230469 L 3.59375 9.066406 C 3.59375 9.105469 3.554688 9.144531 3.515625 9.144531 L 0.796875 9.144531 Z M 0.796875 15.933594 L 0.796875 13.136719 L 13.179688 13.136719 C 13.417969 13.136719 13.578125 12.976562 13.578125 12.738281 C 13.578125 12.5 13.417969 12.339844 13.179688 12.339844 L 0.796875 12.339844 L 0.796875 11.539062 L 11.582031 11.539062 C 11.820312 11.539062 11.980469 11.382812 11.980469 11.140625 C 11.980469 10.902344 11.820312 10.742188 11.582031 10.742188 L 0.796875 10.742188 L 0.796875 9.945312 L 3.515625 9.945312 C 3.992188 9.945312 4.394531 9.542969 4.394531 9.066406 L 4.394531 5.230469 C 4.394531 4.753906 3.992188 4.351562 3.515625 4.351562 L 0.796875 4.351562 L 0.796875 3.953125 C 0.796875 3.753906 1 3.554688 1.199219 3.554688 L 19.167969 3.554688 C 19.289062 3.554688 19.449219 3.632812 19.566406 3.714844 L 20.132812 4.351562 L 18.25 4.351562 C 17.890625 4.351562 17.570312 4.671875 17.570312 5.03125 L 17.570312 9.265625 C 17.570312 9.625 17.890625 9.945312 18.25 9.945312 L 23.121094 9.945312 L 23.121094 11.742188 L 22.484375 11.101562 C 22.394531 11.011719 22.292969 10.945312 22.179688 10.890625 C 21.742188 10.636719 21.160156 10.707031 20.765625 11.101562 L 15.535156 16.332031 L 7.558594 16.332031 C 7.367188 14.96875 6.214844 13.9375 4.792969 13.9375 C 4.785156 13.9375 4.777344 13.9375 4.773438 13.9375 C 4.765625 13.9375 4.757812 13.9375 4.753906 13.9375 C 3.355469 13.9375 2.195312 14.976562 1.996094 16.332031 L 1.199219 16.332031 C 1 16.332031 0.796875 16.171875 0.796875 15.933594 Z M 4.792969 18.730469 C 3.675781 18.730469 2.796875 17.851562 2.796875 16.730469 C 2.796875 15.613281 3.675781 14.734375 4.792969 14.734375 C 5.910156 14.734375 6.789062 15.613281 6.789062 16.730469 C 6.789062 17.851562 5.910156 18.730469 4.792969 18.730469 Z M 15.894531 17.132812 L 19.675781 13.402344 L 21.324219 15.054688 L 17.253906 19.125 L 15.574219 17.449219 L 15.886719 17.132812 Z M 15.21875 18.222656 L 16.480469 19.484375 L 14.734375 19.964844 Z M 23.042969 13.335938 L 21.890625 14.488281 L 20.246094 12.84375 L 21.40625 11.699219 C 21.5625 11.539062 21.804688 11.539062 21.964844 11.699219 L 23.042969 12.777344 C 23.203125 12.9375 23.203125 13.179688 23.042969 13.335938 Z M 23.042969 13.335938"/>
</svg>

<svg xmlns="http://www.w3.org/2000/svg" width="32" height="32" viewBox="0 0 24 24">
    <path d="M16.371 8.984V5.313c0-.52-.437-.961-.957-.961H12.54a.972.972 0 0 0-.957.96v3.672c0 .52.438.961.957.961h2.875c.52 0 .957-.441.957-.96zm-3.992 0V5.313c0-.083.082-.16.16-.16h2.875a.17.17 0 0 1 .16.16v3.671c0 .082-.082.16-.16.16H12.54c-.078 0-.16-.078-.16-.16zm0 0M9.426 4.352H6.55c-.52 0-.961.441-.961.96v3.672c0 .52.441.961.96.961h2.876c.52 0 .957-.441.957-.96V5.312c0-.52-.438-.961-.957-.961zm.16 4.632c0 .082-.082.16-.16.16H6.55a.17.17 0 0 1-.16-.16V5.313a.17.17 0 0 1 .16-.16h2.875c.078 0 .16.077.16.16zm0 0M4.793 15.934c-.441 0-.8.359-.8.796 0 .442.359.801.8.801.437 0 .797-.36.797-.8a.8.8 0 0 0-.797-.797zm0 0"/>
    <path d="M24 7.945c0-.36-.121-.675-.36-.918l-3.472-3.832a1.432 1.432 0 0 0-1-.441H1.199c-.64 0-1.199.52-1.199 1.2v11.98c0 .64.52 1.199 1.2 1.199h.823a2.778 2.778 0 0 0 2.77 2.394 2.774 2.774 0 0 0 2.766-2.394h7.218l-.12.117-.864 3.102-.215.214a.385.385 0 0 0 0 .559c.078.078.16.121.277.121.122 0 .2-.043.282-.121l.215-.215 3.097-.863 6.192-6.11c.242-.222.363-.53.359-.84zM21.832 6.27l1.129 1.277c.121.082.16.238.16.36v1.238h-4.75V5.152h2.434zM.797 5.152h2.719c.039 0 .078.04.078.078v3.836c0 .04-.04.079-.078.079H.796zm0 10.782v-2.797H13.18c.238 0 .398-.16.398-.399 0-.238-.16-.398-.398-.398H.797v-.8h10.785c.238 0 .398-.157.398-.4 0-.238-.16-.398-.398-.398H.797v-.797h2.719a.89.89 0 0 0 .879-.879V5.23a.89.89 0 0 0-.88-.878H.798v-.399c0-.2.203-.398.402-.398h17.969c.121 0 .281.078.398.16l.567.637H18.25c-.36 0-.68.32-.68.68v4.234c0 .359.32.68.68.68h4.871v1.796l-.637-.64a1.091 1.091 0 0 0-.304-.211c-.438-.254-1.02-.184-1.414.21l-5.23 5.231H7.558a2.774 2.774 0 0 0-2.766-2.395h-.04a2.796 2.796 0 0 0-2.757 2.395H1.2c-.199 0-.402-.16-.402-.398zm3.996 2.796a1.978 1.978 0 0 1-1.996-2c0-1.117.879-1.996 1.996-1.996s1.996.88 1.996 1.996c0 1.122-.879 2-1.996 2zm11.102-1.597l3.78-3.73 1.65 1.652-4.071 4.07-1.68-1.676.313-.316zm-.676 1.09l1.261 1.261-1.746.48zm7.824-4.887l-1.152 1.152-1.645-1.644 1.16-1.145a.385.385 0 0 1 .559 0l1.078 1.078c.16.16.16.403 0 .559zm0 0"/>
</svg>
